Hatter-kde/actions/22/office-chart-bar-percentage.svg

<?xml version="1.0" encoding="UTF-8"?>
<svg viewBox="0 0 22 22" xmlns="http://www.w3.org/2000/svg">
 <defs id="defs3051">
  <style id="current-color-scheme" type="text/css">.ColorScheme-Text {
        color:#363636;
      }
      .ColorScheme-Highlight {
        color:#3daee9;
      }</style>
 </defs>
 <path class="ColorScheme-Text" d="m4 3v6 1 5 1 1h-1v1h1v1h1v-1h14v-1h-3v-9h-1-3v9h-2v-13h1v-1h-1-4v14h-1v-1-1-3-1-1-1-3-0.0078125-0.99219-2h-1zm8 0v1h1v3h1v-4h-1-1zm4.5 0c-0.831 0-1.5 0.669-1.5 1.5v1c0 0.831 0.669 1.5 1.5 1.5s1.5-0.669 1.5-1.5v-1c0-0.831-0.669-1.5-1.5-1.5zm4 0c-0.831 0-1.5 0.669-1.5 1.5v1c0 0.831 0.669 1.5 1.5 1.5s1.5-0.669 1.5-1.5v-1c0-0.831-0.669-1.5-1.5-1.5zm-13.5 1h2v13h-2v-13zm9.5 0c0.277 0 0.5 0.223 0.5 0.5v1c0 0.277-0.223 0.5-0.5 0.5s-0.5-0.223-0.5-0.5v-1c0-0.277 0.223-0.5 0.5-0.5zm4 0c0.277 0 0.5 0.223 0.5 0.5v1c0 0.277-0.223 0.5-0.5 0.5s-0.5-0.223-0.5-0.5v-1c0-0.277 0.223-0.5 0.5-0.5zm-7.5 5h2v8h-2v-8z" fill="currentColor"/>
</svg>

<svg xmlns="http://www.w3.org/2000/svg" viewBox="0 0 22 22">
  <defs id="defs3051">
    <style type="text/css" id="current-color-scheme">
      .ColorScheme-Text {
        color:#363636;
      }
      .ColorScheme-Highlight {
        color:#3daee9;
      }
      </style>
  </defs>
 <path 
     style="fill:currentColor;fill-opacity:1;stroke:none" 
     d="M 4 3 L 4 9 L 4 10 L 4 15 L 4 16 L 4 17 L 3 17 L 3 18 L 4 18 L 4 19 L 5 19 L 5 18 L 19 18 L 19 17 L 16 17 L 16 8 L 15 8 L 12 8 L 12 17 L 10 17 L 10 4 L 11 4 L 11 3 L 10 3 L 6 3 L 6 17 L 5 17 L 5 16 L 5 15 L 5 12 L 5 11 L 5 10 L 5 9 L 5 6 L 5 5.9921875 L 5 5 L 5 3 L 4 3 z M 12 3 L 12 4 L 13 4 L 13 7 L 14 7 L 14 3 L 13 3 L 12 3 z M 16.5 3 C 15.669 3 15 3.669 15 4.5 L 15 5.5 C 15 6.331 15.669 7 16.5 7 C 17.331 7 18 6.331 18 5.5 L 18 4.5 C 18 3.669 17.331 3 16.5 3 z M 20.5 3 C 19.669 3 19 3.669 19 4.5 L 19 5.5 C 19 6.331 19.669 7 20.5 7 C 21.331 7 22 6.331 22 5.5 L 22 4.5 C 22 3.669 21.331 3 20.5 3 z M 7 4 L 9 4 L 9 17 L 7 17 L 7 4 z M 16.5 4 C 16.777 4 17 4.223 17 4.5 L 17 5.5 C 17 5.777 16.777 6 16.5 6 C 16.223 6 16 5.777 16 5.5 L 16 4.5 C 16 4.223 16.223 4 16.5 4 z M 20.5 4 C 20.777 4 21 4.223 21 4.5 L 21 5.5 C 21 5.777 20.777 6 20.5 6 C 20.223 6 20 5.777 20 5.5 L 20 4.5 C 20 4.223 20.223 4 20.5 4 z M 13 9 L 15 9 L 15 17 L 13 17 L 13 9 z "
     class="ColorScheme-Text"
     />
</svg>
